X: 880
T: Alex's Haircut
R: jig
M: 6/8
K: Dmajor
Add dce|dff egg|faa g2 e|fed ecA|
GBB BdB|Add dce|dff faa|gfg e2 f|
Add dce|dff egg|faa g2 e|fed ecA|
GBB BdB|Add dce|dff age|edc d2 B||
|:AcA dAe|AdA eAf|AgA fAe|AdA edc|
AcA dAe|AdA eAf|Agg Aff|edc d2 B:|

